!!!OTL: ES GIEBT JA KEINE ROSE OHNE DORNEN
!!!ARE: Europa, Mitteleuropa, Deutschland, Nahegegend, Hennweiler; Nussbaum
!!!SCT: E0673
!!!YEM: Copyright 1995, estate of Helmut Schaffrath.
**kern
*ICvox
*Ivox
*M4/4
*k[f#]
*G:
{4d
=1
8B
8d
8b
8b
8b
8b
8a
8g
=2
4g
4f#
4r}
{4d
=3
8a
8a
8a
8a
8dd
8dd
8cc
8a
=4
4b
4b
4r}
{8d
8d
=5
4dd
4dd
4ee
4dd
=6
2cc
8r}
{8cc
8b
8a
=7
8.g
16d
8d
8d
4b
4a
=8
2g
4r}
==
!!!AGN: Liebes - Lied
!!!ONB: ESAC (Essen Associative Code) Database: ERK2
!!!AMT: simple quadruple
!!!AIN: vox
!!!EED: Helmut Schaffrath
!!!EEV: 1.0
*-
